X:1
T:The Drover's Dream
C:Traditional (Australian)
M:4/4
L:1/4
Q:1/4=80
K:G
G | G A B c | d2 d e | d c B A | G4 | G A B c | d2 d e | d c B A | G4 |]
w: I'm | dream-ing of home | stead o'er the | plain where the graz | ing | herds roam free out | to re turn | home at last sleep | on |
